icons/framework7/framework-original.svg

<?xml version="1.0" encoding="utf-8"?>
<svg width="128" height="128" viewBox="0 0 128 128" version="1.1" xmlns="http://www.w3.org/2000/svg">
  <g id="surface1">
    <path style=" stroke:none;fill-rule:evenodd;fill:rgb(93.333333%,20.784314%,5.882353%);fill-opacity:1;" d="M 0.453125 64 C 0.453125 48.617188 5.84375 34.503906 14.820312 23.464844 L 113.179688 23.464844 L 43.015625 124.429688 C 18.230469 115.699219 0.453125 91.941406 0.453125 64 Z M 118.394531 30.890625 C 124.203125 40.550781 127.546875 51.882812 127.546875 64 C 127.546875 99.347656 99.09375 128 64 128 C 59.796875 128 55.6875 127.589844 51.710938 126.804688 Z M 23.199219 14.933594 C 34.238281 5.613281 48.46875 0 64 0 C 79.53125 0 93.761719 5.613281 104.800781 14.933594 Z M 23.199219 14.933594 "/>
  </g>
</svg>

<svg xmlns="http://www.w3.org/2000/svg" viewBox="0 0 128 128"><path d="M.453 64c0-15.383 5.39-29.496 14.367-40.535h98.36L43.016 124.43C18.23 115.7.453 91.94.453 64Zm117.942-33.11c5.808 9.66 9.152 20.993 9.152 33.11 0 35.348-28.453 64-63.547 64-4.203 0-8.313-.41-12.29-1.195ZM23.199 14.935C34.24 5.614 48.47 0 64 0c15.531 0 29.762 5.613 40.8 14.934Zm0 0" style="stroke:none;fill-rule:evenodd;fill:#ee350f;fill-opacity:1"/></svg>
